icons/carrot.svg

<?xml version="1.0" standalone="no"?><!-- Generator: Gravit.io --><svg xmlns="http://www.w3.org/2000/svg" xmlns:xlink="http://www.w3.org/1999/xlink" width="96" height="96"><path d=" M 77.7965774563857 26.131626523375914 L 85.07977730260714 33.41482636959735 C 86.42328018686158 34.75832925385179 87.27180832428544 36.596806884936804 87.27180832428544 38.57670587225914 C 87.34251900240409 40.48589418146282 86.56470154309889 42.3950824906665 85.22119865884446 43.738585374920945 Q 85.07977730260714 43.880006731158254 31.268951254310878 82.4173263058251 C 28.79407752015797 84.18509325879147 26.107071751649087 85.59930682116456 23.349355305021554 86.65996699294438 C 21.298745639580567 87.43778445224959 19.177425296020914 87.57920580848689 16.985394274342624 87.22565241789361 C 14.93478460890163 86.87209902730035 13.025596299697959 85.81143885552052 11.540672059206209 84.32651461502877 C 9.914326462477149 82.70016901829972 8.924376968815984 80.57884867474007 8.782955612578661 78.31610697494311 C 8.5708235782227 75.69981188455289 8.924376968815977 73.08351679416268 9.914326462477149 70.67935373812841 C 9.9850371405958 70.46722170377244 10.055747818714458 70.25508966941648 10.126458496833116 70.18437899129782 L 12.17706816227409 66.43671305100912 Q 51.98717994307672 10.787409371627831 52.12860129931403 10.645988015390522 C 53.47210418356847 9.30248513113608 55.38129249277215 8.524667671830876 57.290480801975825 8.59537834994953 C 59.27037978929816 8.595378349949527 61.10885742038319 9.44390648737339 62.45236030463762 10.787409371627827 L 62.45236030463762 10.787409371627827 L 69.73556015085906 18.070609217849267 Q 69.19840154389603 11.150447556971194 72.28114456313064 9.585327843610699 Q 74.91595149095824 8.24762689419272 79.70576576558938 11.070252084102442 L 84.79693459013254 16.16142090864559 Q 87.61955978004224 20.951235183276737 86.28185883062427 23.586042111104334 Q 84.71673911726378 26.668785130338954 77.7965774563857 26.131626523375914 Z  M 45.91476104584201 62.132061106740764 L 42.6533704314143 58.87067049231305 C 41.8755529721091 58.092853033007856 40.885603478447926 57.668588964295935 39.824943306668104 57.73929964241459 C 38.76428313488829 57.668588964295935 37.77433364122712 58.092853033007856 36.99651618192192 58.87067049231305 C 36.218698722616715 59.648487951618264 35.79443465390479 60.638437445279436 35.865145332023445 61.69909761705925 C 35.79443465390478 62.75975778883907 36.218698722616715 63.74970728250024 36.99651618192192 64.52752474180545 L 39.31212359375075 66.84313215363427 L 26.602046498479666 75.91194391890886 C 24.692858189275988 77.2554468031633 22.71295920195365 78.38681765306177 20.520928180275362 79.16463511236697 C 19.884532077207467 79.37676714672293 19.177425296020914 79.51818850296024 18.470318514834375 79.37676714672293 C 18.046054446122447 79.23534579048564 17.55107969929186 79.02321375612968 17.197526308698592 78.6696603655364 C 16.985394274342624 78.45752833118044 16.77326223998665 78.10397494058716 16.773262239986664 77.67971087187522 C 16.702551561868 76.33620798762078 16.914683596223977 74.99270510336635 17.338947664935894 73.71991289723057 L 18.96529326166496 70.6793537381284 L 38.451678938844395 43.35527050075841 L 40.53205008785466 45.435641649768655 C 41.309867547159854 46.21345910907387 42.299817040821026 46.63772317778579 43.36047721260084 46.56701249966713 C 44.421137384380664 46.63772317778579 45.41108687804183 46.21345910907387 46.18890433734703 45.435641649768655 C 46.96672179665224 44.65782419046346 47.390985865364165 43.667874696802286 47.3202751872455 42.60721452502247 C 47.390985865364165 41.54655435324264 46.96672179665224 40.55660485958148 46.18890433734703 39.77878740027627 L 43.161379404623716 36.75126246755296 L 57.29048080197583 16.939238367950793 L 78.92794830628418 38.57670587225914 L 72.32531085419292 43.28777691915265 L 68.10921455413 39.071680619089726 C 67.33139709482481 38.29386315978453 66.34144760116364 37.869599091072594 65.28078742938382 37.94030976919125 C 64.22012725760399 37.8695990910726 63.230177763942834 38.29386315978453 62.45236030463763 39.07168061908973 C 61.674542845332425 39.84949807839493 61.25027877662049 40.8394475720561 61.32098945473915 41.90010774383592 C 61.25027877662049 42.96076791561573 61.674542845332425 43.950717409276905 62.45236030463762 44.7285348685821 L 65.72267340210873 47.998847966053205 L 45.91476104584201 62.132061106740764 L 45.91476104584201 62.132061106740764 Z " fill-rule="evenodd" fill="#454545" stroke="none"/><mask id="_mask_w1aONBUdzwjAyYqtRJEZUOF4VgVnXzcF"><path d=" M 77.7965774563857 26.131626523375914 L 85.07977730260714 33.41482636959735 C 86.42328018686158 34.75832925385179 87.27180832428544 36.596806884936804 87.27180832428544 38.57670587225914 C 87.34251900240409 40.48589418146282 86.56470154309889 42.3950824906665 85.22119865884446 43.738585374920945 Q 85.07977730260714 43.880006731158254 31.268951254310878 82.4173263058251 C 28.79407752015797 84.18509325879147 26.107071751649087 85.59930682116456 23.349355305021554 86.65996699294438 C 21.298745639580567 87.43778445224959 19.177425296020914 87.57920580848689 16.985394274342624 87.22565241789361 C 14.93478460890163 86.87209902730035 13.025596299697959 85.81143885552052 11.540672059206209 84.32651461502877 C 9.914326462477149 82.70016901829972 8.924376968815984 80.57884867474007 8.782955612578661 78.31610697494311 C 8.5708235782227 75.69981188455289 8.924376968815977 73.08351679416268 9.914326462477149 70.67935373812841 C 9.9850371405958 70.46722170377244 10.055747818714458 70.25508966941648 10.126458496833116 70.18437899129782 L 12.17706816227409 66.43671305100912 Q 51.98717994307672 10.787409371627831 52.12860129931403 10.645988015390522 C 53.47210418356847 9.30248513113608 55.38129249277215 8.524667671830876 57.290480801975825 8.59537834994953 C 59.27037978929816 8.595378349949527 61.10885742038319 9.44390648737339 62.45236030463762 10.787409371627827 L 62.45236030463762 10.787409371627827 L 69.73556015085906 18.070609217849267 Q 69.19840154389603 11.150447556971194 72.28114456313064 9.585327843610699 Q 74.91595149095824 8.24762689419272 79.70576576558938 11.070252084102442 L 84.79693459013254 16.16142090864559 Q 87.61955978004224 20.951235183276737 86.28185883062427 23.586042111104334 Q 84.71673911726378 26.668785130338954 77.7965774563857 26.131626523375914 Z  M 45.91476104584201 62.132061106740764 L 42.6533704314143 58.87067049231305 C 41.8755529721091 58.092853033007856 40.885603478447926 57.668588964295935 39.824943306668104 57.73929964241459 C 38.76428313488829 57.668588964295935 37.77433364122712 58.092853033007856 36.99651618192192 58.87067049231305 C 36.218698722616715 59.648487951618264 35.79443465390479 60.638437445279436 35.865145332023445 61.69909761705925 C 35.79443465390478 62.75975778883907 36.218698722616715 63.74970728250024 36.99651618192192 64.52752474180545 L 39.31212359375075 66.84313215363427 L 26.602046498479666 75.91194391890886 C 24.692858189275988 77.2554468031633 22.71295920195365 78.38681765306177 20.520928180275362 79.16463511236697 C 19.884532077207467 79.37676714672293 19.177425296020914 79.51818850296024 18.470318514834375 79.37676714672293 C 18.046054446122447 79.23534579048564 17.55107969929186 79.02321375612968 17.197526308698592 78.6696603655364 C 16.985394274342624 78.45752833118044 16.77326223998665 78.10397494058716 16.773262239986664 77.67971087187522 C 16.702551561868 76.33620798762078 16.914683596223977 74.99270510336635 17.338947664935894 73.71991289723057 L 18.96529326166496 70.6793537381284 L 38.451678938844395 43.35527050075841 L 40.53205008785466 45.435641649768655 C 41.309867547159854 46.21345910907387 42.299817040821026 46.63772317778579 43.36047721260084 46.56701249966713 C 44.421137384380664 46.63772317778579 45.41108687804183 46.21345910907387 46.18890433734703 45.435641649768655 C 46.96672179665224 44.65782419046346 47.390985865364165 43.667874696802286 47.3202751872455 42.60721452502247 C 47.390985865364165 41.54655435324264 46.96672179665224 40.55660485958148 46.18890433734703 39.77878740027627 L 43.161379404623716 36.75126246755296 L 57.29048080197583 16.939238367950793 L 78.92794830628418 38.57670587225914 L 72.32531085419292 43.28777691915265 L 68.10921455413 39.071680619089726 C 67.33139709482481 38.29386315978453 66.34144760116364 37.869599091072594 65.28078742938382 37.94030976919125 C 64.22012725760399 37.8695990910726 63.230177763942834 38.29386315978453 62.45236030463763 39.07168061908973 C 61.674542845332425 39.84949807839493 61.25027877662049 40.8394475720561 61.32098945473915 41.90010774383592 C 61.25027877662049 42.96076791561573 61.674542845332425 43.950717409276905 62.45236030463762 44.7285348685821 L 65.72267340210873 47.998847966053205 L 45.91476104584201 62.132061106740764 L 45.91476104584201 62.132061106740764 Z " fill-rule="evenodd" fill="white" stroke="none"/></mask><path d=" M 77.7965774563857 26.131626523375914 L 85.07977730260714 33.41482636959735 C 86.42328018686158 34.75832925385179 87.27180832428544 36.596806884936804 87.27180832428544 38.57670587225914 C 87.34251900240409 40.48589418146282 86.56470154309889 42.3950824906665 85.22119865884446 43.738585374920945 Q 85.07977730260714 43.880006731158254 31.268951254310878 82.4173263058251 C 28.79407752015797 84.18509325879147 26.107071751649087 85.59930682116456 23.349355305021554 86.65996699294438 C 21.298745639580567 87.43778445224959 19.177425296020914 87.57920580848689 16.985394274342624 87.22565241789361 C 14.93478460890163 86.87209902730035 13.025596299697959 85.81143885552052 11.540672059206209 84.32651461502877 C 9.914326462477149 82.70016901829972 8.924376968815984 80.57884867474007 8.782955612578661 78.31610697494311 C 8.5708235782227 75.69981188455289 8.924376968815977 73.08351679416268 9.914326462477149 70.67935373812841 C 9.9850371405958 70.46722170377244 10.055747818714458 70.25508966941648 10.126458496833116 70.18437899129782 L 12.17706816227409 66.43671305100912 Q 51.98717994307672 10.787409371627831 52.12860129931403 10.645988015390522 C 53.47210418356847 9.30248513113608 55.38129249277215 8.524667671830876 57.290480801975825 8.59537834994953 C 59.27037978929816 8.595378349949527 61.10885742038319 9.44390648737339 62.45236030463762 10.787409371627827 L 62.45236030463762 10.787409371627827 L 69.73556015085906 18.070609217849267 Q 69.19840154389603 11.150447556971194 72.28114456313064 9.585327843610699 Q 74.91595149095824 8.24762689419272 79.70576576558938 11.070252084102442 L 84.79693459013254 16.16142090864559 Q 87.61955978004224 20.951235183276737 86.28185883062427 23.586042111104334 Q 84.71673911726378 26.668785130338954 77.7965774563857 26.131626523375914 Z  M 45.91476104584201 62.132061106740764 L 42.6533704314143 58.87067049231305 C 41.8755529721091 58.092853033007856 40.885603478447926 57.668588964295935 39.824943306668104 57.73929964241459 C 38.76428313488829 57.668588964295935 37.77433364122712 58.092853033007856 36.99651618192192 58.87067049231305 C 36.218698722616715 59.648487951618264 35.79443465390479 60.638437445279436 35.865145332023445 61.69909761705925 C 35.79443465390478 62.75975778883907 36.218698722616715 63.74970728250024 36.99651618192192 64.52752474180545 L 39.31212359375075 66.84313215363427 L 26.602046498479666 75.91194391890886 C 24.692858189275988 77.2554468031633 22.71295920195365 78.38681765306177 20.520928180275362 79.16463511236697 C 19.884532077207467 79.37676714672293 19.177425296020914 79.51818850296024 18.470318514834375 79.37676714672293 C 18.046054446122447 79.23534579048564 17.55107969929186 79.02321375612968 17.197526308698592 78.6696603655364 C 16.985394274342624 78.45752833118044 16.77326223998665 78.10397494058716 16.773262239986664 77.67971087187522 C 16.702551561868 76.33620798762078 16.914683596223977 74.99270510336635 17.338947664935894 73.71991289723057 L 18.96529326166496 70.6793537381284 L 38.451678938844395 43.35527050075841 L 40.53205008785466 45.435641649768655 C 41.309867547159854 46.21345910907387 42.299817040821026 46.63772317778579 43.36047721260084 46.56701249966713 C 44.421137384380664 46.63772317778579 45.41108687804183 46.21345910907387 46.18890433734703 45.435641649768655 C 46.96672179665224 44.65782419046346 47.390985865364165 43.667874696802286 47.3202751872455 42.60721452502247 C 47.390985865364165 41.54655435324264 46.96672179665224 40.55660485958148 46.18890433734703 39.77878740027627 L 43.161379404623716 36.75126246755296 L 57.29048080197583 16.939238367950793 L 78.92794830628418 38.57670587225914 L 72.32531085419292 43.28777691915265 L 68.10921455413 39.071680619089726 C 67.33139709482481 38.29386315978453 66.34144760116364 37.869599091072594 65.28078742938382 37.94030976919125 C 64.22012725760399 37.8695990910726 63.230177763942834 38.29386315978453 62.45236030463763 39.07168061908973 C 61.674542845332425 39.84949807839493 61.25027877662049 40.8394475720561 61.32098945473915 41.90010774383592 C 61.25027877662049 42.96076791561573 61.674542845332425 43.950717409276905 62.45236030463762 44.7285348685821 L 65.72267340210873 47.998847966053205 L 45.91476104584201 62.132061106740764 L 45.91476104584201 62.132061106740764 Z " fill-rule="evenodd" fill="none" stroke="none" stroke-width="16" mask="url(#_mask_w1aONBUdzwjAyYqtRJEZUOF4VgVnXzcF)"/></svg>

<svg xmlns="http://www.w3.org/2000/svg" width="96" height="96"><path d="M77.797 26.132l7.283 7.283c1.343 1.343 2.192 3.182 2.192 5.162.07 1.909-.707 3.818-2.05 5.162q-.142.141-53.953 38.678a35.69 35.69 0 0 1-7.92 4.243c-2.05.778-4.172.92-6.364.566-2.05-.354-3.96-1.415-5.444-2.9-1.627-1.626-2.617-3.747-2.758-6.01-.212-2.616.141-5.232 1.131-7.637.071-.212.142-.424.212-.495l2.051-3.747q39.81-55.65 39.952-55.791c1.343-1.344 3.252-2.121 5.161-2.05 1.98 0 3.819.848 5.162 2.191l7.284 7.284q-.538-6.92 2.545-8.486 2.635-1.337 7.425 1.485l5.09 5.091q2.824 4.79 1.486 7.425-1.565 3.083-8.485 2.546zm-31.882 36l-3.262-3.261c-.777-.778-1.767-1.202-2.828-1.132-1.06-.07-2.05.354-2.828 1.132-.778.777-1.203 1.767-1.132 2.828-.07 1.06.354 2.05 1.132 2.829l2.315 2.315-12.71 9.069c-1.91 1.343-3.889 2.475-6.081 3.253-.636.212-1.344.353-2.05.212-.425-.142-.92-.354-1.273-.707a1.433 1.433 0 0 1-.425-.99c-.07-1.344.142-2.687.566-3.96l1.626-3.04 19.487-27.325 2.08 2.08c.778.778 1.768 1.203 2.828 1.132 1.061.07 2.051-.354 2.829-1.131.778-.778 1.202-1.768 1.131-2.829.071-1.06-.353-2.05-1.131-2.828L43.16 36.75l14.13-19.812 21.637 21.638-6.603 4.71-4.216-4.215c-.778-.778-1.768-1.202-2.828-1.132-1.06-.07-2.05.354-2.829 1.132-.777.777-1.202 1.767-1.131 2.828-.07 1.06.354 2.05 1.131 2.829l3.27 3.27-19.807 14.133z" fill-rule="evenodd" fill="#454545"/></svg>
